packages/ui-icons/svg/Solid/linkedin.svg

<svg viewBox="0 0 1920 1920" version="1.1" xmlns="http://www.w3.org/2000/svg">
    <path d="M478.233792,600.750939 L478.233792,1920 L0.0360450563,1920 L0.0360450563,600.750939 L478.233792,600.750939 Z M1199.08686,598.31189 L1199.08686,676.049061 C1268.89412,630.992741 1349.39474,604.8 1471.46733,604.8 C1869.04431,604.8 1919.98798,913.465832 1919.98798,1182.36195 L1919.98798,1182.36195 L1919.98798,1919.96395 L1439.38723,1919.96395 L1439.38723,1219.12791 C1439.38723,1101.26058 1397.21452,1078.91264 1319.23705,1078.91264 C1245.10438,1078.91264 1199.08686,1102.46208 1199.08686,1219.12791 L1199.08686,1219.12791 L1199.08686,1919.96395 L718.486108,1919.96395 L718.486108,598.31189 L1199.08686,598.31189 Z M239.098874,0 C371.02378,0 478.197747,107.294118 478.197747,239.098874 C478.197747,370.90363 371.02378,478.197747 239.098874,478.197747 C107.294118,478.197747 0,370.90363 0,239.098874 C0,107.294118 107.294118,0 239.098874,0 Z" stroke="none" stroke-width="1" fill-rule="evenodd"/>
</svg>

<svg viewBox="0 0 1920 1920" xmlns="http://www.w3.org/2000/svg">
    <path d="M478.234 600.75V1920H.036V600.75h478.198Zm720.853-2.438v77.737c69.807-45.056 150.308-71.249 272.38-71.249 397.577 0 448.521 308.666 448.521 577.562v737.602h-480.6v-700.836c0-117.867-42.173-140.215-120.15-140.215-74.134 0-120.151 23.55-120.151 140.215v700.836h-480.6V598.312h480.6ZM239.099 0c131.925 0 239.099 107.294 239.099 239.099s-107.174 239.099-239.1 239.099C107.295 478.198 0 370.904 0 239.098 0 107.295 107.294 0 239.099 0Z" fill-rule="evenodd"/>
</svg>
